images/win.svg

<svg xmlns="http://www.w3.org/2000/svg" viewBox="0 0 480 480" enable-background="new 0 0 480 480"><path d="m.176 224l-.175-156.04 192-26.07v182.11h-191.83m223.83-186.76l255.94-37.24v224h-255.94v-186.76m256 218.76l-.062 224-255.94-36.01v-187.99h256m-288 183.92l-191.84-26.297-.01-157.62h191.85v183.92"/></svg>

<?xml version="1.0" encoding="iso-8859-1"?>
<!-- Generator: Adobe Illustrator 16.0.0, SVG Export Plug-In . SVG Version: 6.00 Build 0)  -->
<!DOCTYPE svg PUBLIC "-//W3C//DTD SVG 1.1//EN" "http://www.w3.org/Graphics/SVG/1.1/DTD/svg11.dtd">
<svg version="1.1" id="Capa_1" xmlns="http://www.w3.org/2000/svg" xmlns:xlink="http://www.w3.org/1999/xlink" x="0px" y="0px"
	 width="480px" height="480px" viewBox="0 0 480 480" style="enable-background:new 0 0 480 480;" xml:space="preserve">
<g>
	<path d="M0.176,224L0.001,67.963l192-26.072V224H0.176z M224.001,37.241L479.937,0v224H224.001V37.241z M479.999,256l-0.062,224
		l-255.936-36.008V256H479.999z M192.001,439.918L0.157,413.621L0.147,256h191.854V439.918z"/>
</g>
<g>
</g>
<g>
</g>
<g>
</g>
<g>
</g>
<g>
</g>
<g>
</g>
<g>
</g>
<g>
</g>
<g>
</g>
<g>
</g>
<g>
</g>
<g>
</g>
<g>
</g>
<g>
</g>
<g>
</g>
</svg>
